X:11
T:Marcus & Glenda's Reel
R:Reel
C:Bryan Duggan - 4 August 2005
F:http://www.bryanduggan.com/TunePal05.cab 2009-1-3
L:1/4
K:D
e2ed cABc|BGdG eGdG|
~e3c dfed|cABG A2cd|
efed cABc|BGdG eGdG|
~e3c dfed|cABG A2cd|
|e2ed cABc|Bgdg egdg|
~e3c dfed|cABG A2cd|
ecAc ecAc|dBFB defd|
~e3c dfed|cABG A4|
|:aeef gabg|gfad gabg|
aeef gabg|cABG A3b:|
aeef gabg|gfad gabg|
aeef gabg|cABG A3b
ae~e2 ae~e2|gd~d2 gabg|
ae~e2 gabg|cABG A4|
